X: 9
T: Jump At The Sun
R: jig
M: 6/8
L: 1/8
K: Dmin
|: E |DFA ^G2 A | DFA ^G2 A | dAA dAA | AGF E2 F |
DFA ^G2 A | DFA ^G2 A | dAA BAG | FGE D2 :|
|: A |dAA fed | eAA gfe | fed fed | e^cA B2 A |
dAA fed | eAA gfe | dAA BAG | FGE D2 :|


Tune 736	Setting 13815

